X: 8978
T: Cutting Bracken
R: strathspey
M: 4/4
K: Dmajor
|:(3AAA a2 g<e ({f}g2|e>)d B>A G>A B>G|(3AAA a2 g<e ({f}g2|
[1 e)>d B>G (3AAA A>B:|2 e>d B>G (3AAA (A>g)|:e>d B>A G>A B<d|
e>d B<A {A}B2 (3BBg|e>d B>A G>A B<e|d<B g>B A2 A2:|

